Adwaita++-Dark/actions/22/timeline-use-zone-on.svg

<svg fill="none" height="22" viewBox="0 0 22 22" width="22" xmlns="http://www.w3.org/2000/svg">
  <g fill="#e6ddff">
    <path clip-rule="evenodd" d="m7 3h2v4h1v-2h2v2h1v-2h2v2h1v-4h2v4h1v2h-16v-2h1v-2h2v2h1z" fill-rule="evenodd"/>
    <path d="m5 12h-2v7h2z"/>
    <path d="m19 12h-2v7h2z"/>
  </g>
  <path d="m8.5 19 .00448-7h-.35366-.03658c-.06826-.0007-.13574.0272-.19518.0875l-2.7335 2.8c-.12133.1203-.18316.3664-.18332.6125s.06136.4922.18253.6125l2.72992 2.8c.05936.0604.12681.0884.19507.0875h.03658z" fill="#3584e4"/>
  <path d="m13.5 19-.0045-7h.3537.0366c.0682-.0007.1357.0272.1951.0875l2.7335 2.8c.1214.1203.1832.3664.1834.6125.0001.2461-.0614.4922-.1826.6125l-2.7299 2.8c-.0594.0604-.1268.0884-.1951.0875h-.0365z" fill="#3584e4"/>
</svg>

<svg xmlns="http://www.w3.org/2000/svg" fill="none" width="22" height="22" viewBox="0 0 22 22">
 <path fill="#E6DDFF" fill-rule="evenodd" d="M7 3H9V7H10V5H12V7H13V5H15V7H16V3H18V7H19V9H3V7H4V5H6V7H7V3Z" clip-rule="evenodd"/>
 <path fill="#E6DDFF" d="M5 12H3V19H5V12Z"/>
 <path fill="#E6DDFF" d="M19 12H17V19H19V12Z"/>
 <path fill="#3584E4" d="M8.5 19L8.50448 12H8.15082H8.11424C8.04598 11.9993 7.9785 12.0272 7.91906 12.0875L5.18556 14.8875C5.06423 15.0078 5.0024 15.2539 5.00224 15.5C5.00208 15.7461 5.0636 15.9922 5.18477 16.1125L7.91469 18.9125C7.97405 18.9729 8.0415 19.0009 8.10976 19H8.14634H8.5Z"/>
 <path fill="#3584E4" d="M13.5 19L13.4955 12H13.8492H13.8858C13.954 11.9993 14.0215 12.0272 14.0809 12.0875L16.8144 14.8875C16.9358 15.0078 16.9976 15.2539 16.9978 15.5C16.9979 15.7461 16.9364 15.9922 16.8152 16.1125L14.0853 18.9125C14.0259 18.9729 13.9585 19.0009 13.8902 19H13.8537H13.5Z"/>
</svg>
